;FLAVOR:Marlin
;TIME:14581
;Filament used: 11.429m
;Layer height: 0.2
;MINX:42
;MINY:61
;MINZ:0.3
;MAXX:178
;MAXY:159
;MAXZ:16.5
;Generated with Creality Slicer 4.8.2-291
M140 S70
M105
M190 S70
M104 S220
M105
M109 S220
M82 ;absolute extrusion mode

G28 ;Home

G92 E0 ;Reset Extruder
G1 Z2.0 F3000 ;Move Z Axis up
G1 X10.1 Y20 Z0.28 F5000.0 ;Move to start position
G1 X10.1 Y200.0 Z0.28 F1500.0 E15 ;Draw the first line
G1 X10.4 Y200.0 Z0.28 F5000.0 ;Move to side a little
G1 X10.4 Y20 Z0.28 F1500.0 E30 ;Draw the second line
G92 E0 ;Reset Extruder
G1 Z2.0 F3000 ;Move Z Axis up

G92 E0
G92 E0
G1 F2400 E-3
;LAYER_COUNT:82
;LAYER:0
M107
G0 F6000 X46.626 Y63.051 Z0.3
;TYPE:SKIRT
G1 F2400 E0
G1 F1200 X47.412 Y62.539 E0.0468
G1 X48.239 Y62.097 E0.09358
G1 X49.101 Y61.727 E0.14038
G1 X49.991 Y61.431 E0.18718
G1 X50.903 Y61.213 E0.23396
G1 X51.83 Y61.072 E0.28074
G1 X52.701 Y61.013 E0.32429
G1 X53.022 Y61.004 E0.34031
G1 X53.33 Y61 E0.35568
G1 X166.293 Y61 E5.99143
G1 X167.149 Y61.011 E6.03414
G1 X168.085 Y61.065 E6.08091
G1 X169.013 Y61.197 E6.12768
G1 X169.927 Y61.409 E6.17449
G1 X170.819 Y61.698 E6.22126
G1 X171.684 Y62.061 E6.26807
G1 X172.514 Y62.497 E6.31484
G1 X173.305 Y63.002 E6.36166
G1 X174.049 Y63.573 E6.40845
G1 X174.742 Y64.205 E6.45524
G1 X175.379 Y64.893 E6.50202
G1 X175.954 Y65.634 E6.54881
G1 X176.465 Y66.42 E6.59559
G1 X176.907 Y67.248 E6.64241
G1 X177.276 Y68.11 E6.68919
G1 X177.571 Y69 E6.73597
G1 X177.789 Y69.912 E6.78275
G1 X177.929 Y70.84 E6.82957
G1 X177.987 Y71.701 E6.87263
G1 X177.996 Y72.021 E6.8886
G1 X178 Y72.33 E6.90401
G1 X177.999 Y147.4 E10.64927
G1 X177.99 Y148.127 E10.68555
G1 X177.939 Y149.064 E10.73236
G1 X177.807 Y149.992 E10.77913
G1 X177.598 Y150.906 E10.8259
G1 X177.311 Y151.799 E10.8727
G1 X176.949 Y152.665 E10.91953
G1 X176.515 Y153.496 E10.9663
G1 X176.011 Y154.287 E11.01309
G1 X175.442 Y155.032 E11.05986
G1 X174.811 Y155.727 E11.10669
G1 X174.124 Y156.365 E11.15347
G1 X173.385 Y156.942 E11.20024
G1 X172.599 Y157.454 E11.24704
G1 X171.773 Y157.897 E11.29381
G1 X170.911 Y158.269 E11.34064
G1 X170.022 Y158.565 E11.38739
G1 X169.11 Y158.785 E11.4342
G1 X168.183 Y158.926 E11.48098
G1 X167.299 Y158.987 E11.52518
G1 X166.978 Y158.996 E11.54121
G1 X166.67 Y159 E11.55657
G1 X53.565 Y158.999 E17.1994
G1 X52.867 Y158.99 E17.23423
G1 X51.931 Y158.938 E17.281
G1 X51.002 Y158.806 E17.32781
G1 X50.088 Y158.596 E17.3746
G1 X49.195 Y158.309 E17.4214
G1 X48.33 Y157.946 E17.4682
G1 X47.499 Y157.512 E17.51497
G1 X46.708 Y157.008 E17.56176
G1 X45.963 Y156.438 E17.60856
G1 X45.269 Y155.807 E17.65536
G1 X44.632 Y155.12 E17.7021
G1 X44.055 Y154.38 E17.74891
G1 X43.543 Y153.594 E17.79571
G1 X43.1 Y152.767 E17.84252
G1 X42.729 Y151.906 E17.88929
G1 X42.433 Y151.016 E17.93609
G1 X42.214 Y150.104 E17.98288
G1 X42.073 Y149.177 E18.02966
G1 X42.013 Y148.288 E18.07411
G1 X42.004 Y147.955 E18.09073
G1 X42 Y147.658 E18.10555
G1 X42.001 Y72.525 E21.85395
G1 X42.01 Y71.86 E21.88713
G1 X42.063 Y70.924 E21.9339
G1 X42.195 Y69.995 E21.98072
G1 X42.406 Y69.081 E22.02752
G1 X42.694 Y68.189 E22.07428
G1 X43.057 Y67.324 E22.12108
G1 X43.492 Y66.493 E22.16788
G1 X43.996 Y65.703 E22.21463
G1 X44.566 Y64.958 E22.26143
G1 X45.198 Y64.264 E22.30826
G1 X45.886 Y63.627 E22.35504
G1 X46.626 Y63.051 E22.40182
G0 F6000 X47.01 Y63.27
G1 F1200 X47.791 Y62.782 E22.44776
G1 X48.611 Y62.364 E22.49368
G1 X49.465 Y62.019 E22.53964
G1 X50.345 Y61.749 E22.58556
G1 X51.245 Y61.557 E22.63147
G1 X52.159 Y61.443 E22.67742
G1 X52.712 Y61.413 E22.70505
G1 X53.033 Y61.404 E22.72107
G1 X53.33 Y61.4 E22.73589
G1 X166.293 Y61.4 E28.37164
G1 X167.143 Y61.411 E28.41405
G1 X168.062 Y61.464 E28.45998
G1 X168.973 Y61.597 E28.50591
G1 X169.869 Y61.808 E28.55183
G1 X170.743 Y62.096 E28.59774
G1 X171.59 Y62.459 E28.64372
G1 X172.401 Y62.894 E28.68963
G1 X173.171 Y63.398 E28.73554
G1 X173.895 Y63.967 E28.78148
G1 X174.567 Y64.597 E28.82744
G1 X175.182 Y65.282 E28.87337
G1 X175.735 Y66.018 E28.9193
G1 X176.222 Y66.799 E28.96521
G1 X176.639 Y67.62 E29.01115
G1 X176.984 Y68.474 E29.05711
G1 X177.253 Y69.354 E29.10301
G1 X177.445 Y70.255 E29.14898
G1 X177.558 Y71.168 E29.19487
G1 X177.587 Y71.712 E29.22205
G1 X177.596 Y72.032 E29.23802
G1 X177.6 Y72.33 E29.25289
G1 X177.599 Y147.395 E32.9979
G1 X177.59 Y148.122 E33.03417
G1 X177.539 Y149.041 E33.08009
G1 X177.408 Y149.953 E33.12606
G1 X177.198 Y150.849 E33.17197
G1 X176.912 Y151.724 E33.2179
G1 X176.551 Y152.571 E33.26383
G1 X176.117 Y153.383 E33.30977
G1 X175.615 Y154.155 E33.35571
G1 X175.047 Y154.88 E33.40166
G1 X174.419 Y155.553 E33.44758
G1 X173.735 Y156.169 E33.49351
G1 X173 Y156.723 E33.53943
G1 X172.22 Y157.212 E33.58535
G1 X171.4 Y157.631 E33.6313
G1 X170.547 Y157.977 E33.67722
G1 X169.667 Y158.248 E33.72316
G1 X168.767 Y158.441 E33.76908
G1 X167.853 Y158.556 E33.81504
G1 X167.288 Y158.587 E33.84327
G1 X166.967 Y158.596 E33.85929
G1 X166.67 Y158.6 E33.87411
G1 X53.57 Y158.599 E39.51669
G1 X52.872 Y158.59 E39.55152
G1 X51.953 Y158.538 E39.59744
G1 X51.042 Y158.407 E39.64336
G1 X50.146 Y158.197 E39.68927
G1 X49.271 Y157.91 E39.73521
G1 X48.424 Y157.548 E39.78117
G1 X47.612 Y157.114 E39.8271
G1 X46.841 Y156.612 E39.873
G1 X46.116 Y156.044 E39.91895
G1 X45.443 Y155.415 E39.96491
G1 X44.828 Y154.731 E40.0108
G1 X44.274 Y153.996 E40.05672
G1 X43.786 Y153.215 E40.10266
G1 X43.367 Y152.395 E40.1486
G1 X43.021 Y151.542 E40.19453
G1 X42.751 Y150.662 E40.24045
G1 X42.558 Y149.761 E40.28642
G1 X42.444 Y148.848 E40.33233
G1 X42.413 Y148.277 E40.36086
G1 X42.404 Y147.944 E40.37747
G1 X42.4 Y147.658 E40.39174
G1 X42.401 Y72.531 E44.13985
G1 X42.41 Y71.866 E44.17303
G1 X42.462 Y70.946 E44.219
G1 X42.594 Y70.035 E44.26492
G1 X42.805 Y69.139 E44.31085
G1 X43.092 Y68.264 E44.35679
G1 X43.455 Y67.418 E44.40272
G1 X43.889 Y66.606 E44.44865
G1 X44.392 Y65.835 E44.49458
G1 X44.961 Y65.111 E44.54052
G1 X45.589 Y64.439 E44.58641
G1 X46.274 Y63.823 E44.63237
G1 X47.01 Y63.27 E44.6783
G0 F6000 X47.394 Y63.494
G1 F1200 X48.169 Y63.031 E44.72334
G1 X48.982 Y62.638 E44.76839
G1 X49.827 Y62.318 E44.81347
G1 X50.696 Y62.075 E44.85848
G1 X51.584 Y61.909 E44.90355
G1 X52.723 Y61.813 E44.96058
G1 X53.044 Y61.804 E44.9766
G1 X53.33 Y61.8 E44.99087
G1 X166.293 Y61.8 E50.62662
G1 X167.137 Y61.811 E50.66873
G1 X168.039 Y61.864 E50.71381
G1 X168.932 Y61.996 E50.75884
G1 X169.81 Y62.207 E50.80389
G1 X170.666 Y62.495 E50.84895
G1 X171.493 Y62.857 E50.89399
G1 X172.285 Y63.292 E50.93907
G1 X173.036 Y63.794 E50.98414
G1 X173.739 Y64.361 E51.0292
G1 X174.389 Y64.988 E51.07426
G1 X174.981 Y65.67 E51.11931
G1 X175.511 Y66.401 E51.16436
G1 X175.973 Y67.177 E51.20941
G1 X176.366 Y67.99 E51.25447
G1 X176.684 Y68.835 E51.29951
G1 X176.927 Y69.705 E51.34458
G1 X177.092 Y70.593 E51.38964
G1 X177.187 Y71.723 E51.44621
G1 X177.196 Y72.043 E51.46218
G1 X177.2 Y72.33 E51.4765
G1 X177.199 Y147.39 E55.22126
G1 X177.19 Y148.117 E55.25753
G1 X177.139 Y149.019 E55.30261
G1 X177.008 Y149.913 E55.34768
G1 X176.799 Y150.791 E55.39271
G1 X176.513 Y151.648 E55.43779
G1 X176.152 Y152.476 E55.48285
G1 X175.72 Y153.268 E55.52786
G1 X175.219 Y154.02 E55.57294
G1 X174.653 Y154.724 E55.61801
G1 X174.028 Y155.375 E55.66303
G1 X173.347 Y155.969 E55.70811
G1 X172.616 Y156.5 E55.75319
G1 X171.842 Y156.964 E55.79821
G1 X171.029 Y157.358 E55.84329
G1 X170.185 Y157.678 E55.88832
G1 X169.315 Y157.923 E55.93341
G1 X168.428 Y158.089 E55.97843
G1 X167.277 Y158.187 E56.03606
G1 X166.956 Y158.196 E56.05208
G1 X166.67 Y158.2 E56.06635
G1 X53.575 Y158.199 E61.70869
G1 X52.877 Y158.19 E61.74351
G1 X51.976 Y158.139 E61.78854
G1 X51.082 Y158.007 E61.83362
G1 X50.204 Y157.798 E61.87865
G1 X49.347 Y157.511 E61.92374
G1 X48.52 Y157.15 E61.96876
G1 X47.727 Y156.717 E62.01383
G1 X46.976 Y156.216 E62.05887
G1 X46.272 Y155.65 E62.10394
G1 X45.621 Y155.024 E62.149
G1 X45.028 Y154.343 E62.19405
G1 X44.498 Y153.612 E62.2391
G1 X44.034 Y152.837 E62.28416
G1 X43.64 Y152.024 E62.32923
G1 X43.32 Y151.18 E62.37427
G1 X43.076 Y150.31 E62.41934
G1 X42.91 Y149.422 E62.46441
G1 X42.813 Y148.267 E62.52224
G1 X42.804 Y147.934 E62.53886
G1 X42.8 Y147.658 E62.55263
G1 X42.801 Y72.536 E66.30048
G1 X42.81 Y71.871 E66.33366
G1 X42.862 Y70.969 E66.37874
G1 X42.994 Y70.076 E66.42377
G1 X43.204 Y69.198 E66.46881
G1 X43.491 Y68.341 E66.5139
G1 X43.853 Y67.514 E66.55894
G1 X44.286 Y66.722 E66.60398
G1 X44.788 Y65.971 E66.64904
G1 X45.355 Y65.267 E66.69414
G1 X45.981 Y64.617 E66.73916
G1 X46.662 Y64.024 E66.78421
G1 X47.394 Y63.494 E66.8293
G1 F2400 E63.8293
;MESH:test.stl
G0 F6000 X53.81 Y71.335
G0 X53.81 Y72.81
G0 X53.782 Y147.218
G0 X166.4 Y147.4
;TYPE:WALL-INNER
G1 F2400 E66.8293
G1 F1200 X53.6 Y147.4 E72.45692
G1 X53.6 Y72.6 E76.1887
G1 X166.4 Y72.6 E81.81632
G1 X166.4 Y147.4 E85.5481
G0 F6000 X166.8 Y147.8
;TYPE:WALL-OUTER
G1 F1200 X53.2 Y147.8 E91.21563
G1 X53.2 Y72.2 E94.98733
G1 X166.8 Y72.2 E100.65486
G1 X166.8 Y147.8 E104.42656
G0 F6000 X166.53 Y147.53
G0 X166.29 Y147.01
G0 X166.01 Y147.01
;TYPE:SKIN
G1 F1200 X53.99 Y147.01 E110.01526
G1 X53.99 Y72.99 E113.70813
G1 X166.01 Y72.99 E119.29683
G1 X166.01 Y147.01 E122.9897
G0 F6000 X166.29 Y147.01
G0 X166.29 Y73.643
G0 X165.849 Y73.643
G1 F1200 X165.356 Y73.15 E123.02449
G0 F6000 X164.791 Y73.15
G1 F1200 X165.849 Y74.208 E123.09914
G0 F6000 X165.849 Y74.774
G1 F1200 X164.225 Y73.15 E123.21372
G0 F6000 X163.659 Y73.15
G1 F1200 X165.849 Y75.34 E123.36823
G0 F6000 X165.849 Y75.905
G1 F1200 X163.094 Y73.15 E123.56261
G0 F6000 X162.528 Y73.15
G1 F1200 X165.849 Y76.471 E123.79693
G0 F6000 X165.849 Y77.037
G1 F1200 X161.962 Y73.15 E124.07118
G0 F6000 X161.397 Y73.15
G1 F1200 X165.849 Y77.602 E124.38529
G0 F6000 X165.849 Y78.168
G1 F1200 X160.831 Y73.15 E124.73934
G0 F6000 X160.265 Y73.15
G1 F1200 X165.849 Y78.734 E125.13332
G0 F6000 X165.849 Y79.299
G1 F1200 X159.7 Y73.15 E125.56716
G0 F6000 X159.134 Y73.15
G1 F1200 X165.849 Y79.865 E126.04094
G0 F6000 X165.849 Y80.431
G1 F1200 X158.568 Y73.15 E126.55466
G0 F6000 X158.003 Y73.15
G1 F1200 X165.849 Y80.996 E127.10823
G0 F6000 X165.849 Y81.562
G1 F1200 X157.437 Y73.15 E127.70175
G0 F6000 X156.871 Y73.15
G1 F1200 X165.849 Y82.128 E128.33519
G0 F6000 X165.849 Y82.694
G1 F1200 X156.305 Y73.15 E129.00857
G0 F6000 X155.74 Y73.15
G1 F1200 X165.849 Y83.259 E129.72182
G0 F6000 X165.849 Y83.825
G1 F1200 X155.174 Y73.15 E130.475
G0 F6000 X154.608 Y73.15
G1 F1200 X165.849 Y84.391 E131.26811
G0 F6000 X165.849 Y84.956
G1 F1200 X154.043 Y73.15 E132.10109
G0 F6000 X153.477 Y73.15
G1 F1200 X165.849 Y85.522 E132.974
G0 F6000 X165.849 Y86.088
G1 F1200 X152.911 Y73.15 E133.88684
G0 F6000 X152.346 Y73.15
G1 F1200 X165.849 Y86.653 E134.83955
G0 F6000 X165.849 Y87.219
G1 F1200 X151.78 Y73.15 E135.8322
G0 F6000 X151.214 Y73.15
G1 F1200 X165.849 Y87.785 E136.86478
G0 F6000 X165.849 Y88.35
G1 F1200 X150.649 Y73.15 E137.93722
G0 F6000 X150.083 Y73.15
G1 F1200 X165.849 Y88.916 E139.04959
G0 F6000 X165.849 Y89.482
G1 F1200 X149.517 Y73.15 E140.20191
G0 F6000 X148.952 Y73.15
G1 F1200 X165.849 Y90.047 E141.39408
G0 F6000 X165.849 Y90.613
G1 F1200 X148.386 Y73.15 E142.62619
G0 F6000 X147.82 Y73.15
G1 F1200 X165.849 Y91.179 E143.89823
G0 F6000 X165.849 Y91.744
G1 F1200 X147.254 Y73.15 E145.21017
G0 F6000 X146.689 Y73.15
G1 F1200 X165.849 Y92.31 E146.56202
G0 F6000 X165.849 Y92.876
G1 F1200 X146.123 Y73.15 E147.95379
G0 F6000 X145.557 Y73.15
G1 F1200 X165.849 Y93.442 E149.3855
G0 F6000 X165.849 Y94.007
G1 F1200 X144.992 Y73.15 E150.85708
G0 F6000 X144.426 Y73.15
G1 F1200 X165.849 Y94.573 E152.36858
G0 F6000 X165.849 Y95.139
G1 F1200 X143.86 Y73.15 E153.92003
G0 F6000 X143.295 Y73.15
G1 F1200 X165.849 Y95.704 E155.51133
G0 F6000 X165.849 Y96.27
G1 F1200 X142.729 Y73.15 E157.14257
G0 F6000 X142.163 Y73.15
G1 F1200 X165.849 Y96.836 E158.81375
G0 F6000 X165.849 Y97.401
G1 F1200 X141.598 Y73.15 E160.52479
G0 F6000 X141.032 Y73.15
G1 F1200 X165.849 Y97.967 E162.27576
G0 F6000 X165.849 Y98.533
G1 F1200 X140.466 Y73.15 E164.06667
G0 F6000 X139.901 Y73.15
G1 F1200 X165.849 Y99.098 E165.89744
G0 F6000 X165.849 Y99.664
G1 F1200 X139.335 Y73.15 E167.76815
G0 F6000 X138.769 Y73.15
G1 F1200 X165.849 Y100.23 E169.67879
G0 F6000 X165.849 Y100.795
G1 F1200 X138.204 Y73.15 E171.62929
G0 F6000 X137.638 Y73.15
G1 F1200 X165.849 Y101.361 E173.61973
G0 F6000 X165.849 Y101.927
G1 F1200 X137.072 Y73.15 E175.6501
G0 F6000 X136.506 Y73.15
G1 F1200 X165.849 Y102.493 E177.72041
G0 F6000 X165.849 Y103.058
G1 F1200 X135.941 Y73.15 E179.83058
G0 F6000 X135.375 Y73.15
G1 F1200 X165.849 Y103.624 E181.98069
G0 F6000 X165.849 Y104.19
G1 F1200 X134.809 Y73.15 E184.17073
G0 F6000 X134.244 Y73.15
G1 F1200 X165.849 Y104.755 E186.40063
G0 F6000 X165.849 Y105.321
G1 F1200 X133.678 Y73.15 E188.67047
G0 F6000 X133.112 Y73.15
G1 F1200 X165.849 Y105.887 E190.98024
G0 F6000 X165.849 Y106.452
G1 F1200 X132.547 Y73.15 E193.32988
G0 F6000 X131.981 Y73.15
G1 F1200 X165.849 Y107.018 E195.71945
G0 F6000 X165.849 Y107.584
G1 F1200 X131.415 Y73.15 E198.14895
G0 F6000 X130.85 Y73.15
G1 F1200 X165.849 Y108.149 E200.61832
G0 F6000 X165.849 Y108.715
G1 F1200 X130.284 Y73.15 E203.12762
G0 F6000 X129.718 Y73.15
G1 F1200 X165.849 Y109.281 E205.67686
G0 F6000 X165.849 Y109.846
G1 F1200 X129.153 Y73.15 E208.26596
G0 F6000 X128.587 Y73.15
G1 F1200 X165.849 Y110.412 E210.895
G0 F6000 X165.849 Y110.978
G1 F1200 X128.021 Y73.15 E213.56397
G0 F6000 X127.455 Y73.15
G1 F1200 X165.849 Y111.543 E216.27283
G0 F6000 X165.849 Y112.109
G1 F1200 X126.89 Y73.15 E219.0216
G0 F6000 X126.324 Y73.15
G1 F1200 X165.849 Y112.675 E221.8103
G0 F6000 X165.849 Y113.241
G1 F1200 X125.758 Y73.15 E224.63894
G0 F6000 X125.193 Y73.15
G1 F1200 X165.849 Y113.806 E227.50744
G0 F6000 X165.849 Y114.372
G1 F1200 X124.627 Y73.15 E230.41588
G0 F6000 X124.061 Y73.15
G1 F1200 X165.849 Y114.938 E233.36425
G0 F6000 X165.849 Y115.503
G1 F1200 X123.496 Y73.15 E236.35248
G0 F6000 X122.93 Y73.15
G1 F1200 X165.849 Y116.069 E239.38065
G0 F6000 X165.849 Y116.635
G1 F1200 X122.364 Y73.15 E242.44875
G0 F6000 X121.799 Y73.15
G1 F1200 X165.849 Y117.2 E245.55671
G0 F6000 X165.849 Y117.766
G1 F1200 X121.233 Y73.15 E248.70461
G0 F6000 X120.667 Y73.15
G1 F1200 X165.849 Y118.332 E251.89245
G0 F6000 X165.849 Y118.897
G1 F1200 X120.102 Y73.15 E255.12014
G0 F6000 X119.536 Y73.15
G1 F1200 X165.849 Y119.463 E258.38778
G0 F6000 X165.849 Y120.029
G1 F1200 X118.97 Y73.15 E261.69534
G0 F6000 X118.405 Y73.15
G1 F1200 X165.849 Y120.594 E265.04277
G0 F6000 X165.849 Y121.16
G1 F1200 X117.839 Y73.15 E268.43014
G0 F6000 X117.273 Y73.15
G1 F1200 X165.849 Y121.726 E271.85744
G0 F6000 X165.849 Y122.291
G1 F1200 X116.707 Y73.15 E275.32464
G0 F6000 X116.142 Y73.15
G1 F1200 X165.849 Y122.857 E278.83173
G0 F6000 X165.849 Y123.423
G1 F1200 X115.576 Y73.15 E282.37876
G0 F6000 X115.01 Y73.15
G1 F1200 X165.849 Y123.989 E285.96573
G0 F6000 X165.849 Y124.554
G1 F1200 X114.445 Y73.15 E289.59256
G0 F6000 X113.879 Y73.15
G1 F1200 X165.849 Y125.12 E293.25932
G0 F6000 X165.849 Y125.686
G1 F1200 X113.313 Y73.15 E296.96602
G0 F6000 X112.748 Y73.15
G1 F1200 X165.849 Y126.251 E300.71259
G0 F6000 X165.849 Y126.817
G1 F1200 X112.182 Y73.15 E304.49908
G0 F6000 X111.616 Y73.15
G1 F1200 X165.849 Y127.383 E308.32551
G0 F6000 X165.849 Y127.948
G1 F1200 X111.051 Y73.15 E312.19181
G0 F6000 X110.485 Y73.15
G1 F1200 X165.849 Y128.514 E316.09804
G0 F6000 X165.849 Y129.08
G1 F1200 X109.919 Y73.15 E320.0442
G0 F6000 X109.354 Y73.15
G1 F1200 X165.849 Y129.645 E324.03023
G0 F6000 X165.849 Y130.211
G1 F1200 X108.788 Y73.15 E328.05619
G0 F6000 X108.222 Y73.15
G1 F1200 X165.849 Y130.777 E332.12209
G0 F6000 X165.849 Y131.342
G1 F1200 X107.657 Y73.15 E336.22785
G0 F6000 X107.091 Y73.15
