;FLAVOR:Marlin
;TIME:17500
;Filament used: 13.3161m
;Layer height: 0.2
;MINX:41
;MINY:60
;MINZ:0.3
;MAXX:179
;MAXY:160
;MAXZ:19.9
;Generated with Creality Slicer 4.8.2-291
M140 S70
M105
M190 S70
M104 S220
M105
M109 S220
M82 ;absolute extrusion mode

G28 ;Home

G92 E0 ;Reset Extruder
G1 Z2.0 F3000 ;Move Z Axis up
G1 X10.1 Y20 Z0.28 F5000.0 ;Move to start position
G1 X10.1 Y200.0 Z0.28 F1500.0 E15 ;Draw the first line
G1 X10.4 Y200.0 Z0.28 F5000.0 ;Move to side a little
G1 X10.4 Y20 Z0.28 F1500.0 E30 ;Draw the second line
G92 E0 ;Reset Extruder
G1 Z2.0 F3000 ;Move Z Axis up

G92 E0
G92 E0
G1 F2400 E-3
;LAYER_COUNT:99
;LAYER:0
M107
G0 F6000 X45.626 Y62.051 Z0.3
;TYPE:SKIRT
G1 F2400 E0
G1 F1200 X46.412 Y61.539 E0.0468
G1 X47.239 Y61.097 E0.09358
G1 X48.101 Y60.727 E0.14038
G1 X48.991 Y60.431 E0.18718
G1 X49.903 Y60.213 E0.23396
G1 X50.83 Y60.072 E0.28074
G1 X51.701 Y60.013 E0.32429
G1 X52.022 Y60.004 E0.34031
G1 X52.33 Y60 E0.35568
G1 X167.293 Y60 E6.09121
G1 X168.149 Y60.011 E6.13392
G1 X169.085 Y60.065 E6.18069
G1 X170.013 Y60.197 E6.22746
G1 X170.927 Y60.409 E6.27427
G1 X171.819 Y60.698 E6.32105
G1 X172.684 Y61.061 E6.36785
G1 X173.514 Y61.497 E6.41462
G1 X174.305 Y62.002 E6.46144
G1 X175.049 Y62.573 E6.50823
G1 X175.742 Y63.205 E6.55502
G1 X176.379 Y63.893 E6.6018
G1 X176.954 Y64.634 E6.64859
G1 X177.465 Y65.42 E6.69537
G1 X177.907 Y66.248 E6.74219
G1 X178.276 Y67.11 E6.78897
G1 X178.571 Y68 E6.83575
G1 X178.789 Y68.912 E6.88253
G1 X178.929 Y69.84 E6.92935
G1 X178.987 Y70.701 E6.97241
G1 X178.996 Y71.021 E6.98838
G1 X179 Y71.33 E7.0038
G1 X178.999 Y148.4 E10.84883
G1 X178.99 Y149.127 E10.88511
G1 X178.939 Y150.064 E10.93192
G1 X178.807 Y150.992 E10.97869
G1 X178.598 Y151.906 E11.02546
G1 X178.311 Y152.799 E11.07226
G1 X177.949 Y153.665 E11.11909
G1 X177.515 Y154.496 E11.16586
G1 X177.011 Y155.287 E11.21265
G1 X176.442 Y156.032 E11.25942
G1 X175.811 Y156.727 E11.30625
G1 X175.124 Y157.365 E11.35303
G1 X174.385 Y157.942 E11.39981
G1 X173.599 Y158.454 E11.4466
G1 X172.773 Y158.897 E11.49337
G1 X171.911 Y159.269 E11.54021
G1 X171.022 Y159.565 E11.58695
G1 X170.11 Y159.785 E11.63376
G1 X169.183 Y159.926 E11.68054
G1 X168.299 Y159.987 E11.72474
G1 X167.978 Y159.996 E11.74077
G1 X167.67 Y160 E11.75613
G1 X52.565 Y159.999 E17.49875
G1 X51.867 Y159.99 E17.53357
G1 X50.931 Y159.938 E17.58034
G1 X50.002 Y159.806 E17.62715
G1 X49.088 Y159.596 E17.67394
G1 X48.195 Y159.309 E17.72074
G1 X47.33 Y158.946 E17.76754
G1 X46.499 Y158.512 E17.81431
G1 X45.708 Y158.008 E17.8611
G1 X44.963 Y157.438 E17.9079
G1 X44.269 Y156.807 E17.9547
G1 X43.632 Y156.12 E18.00144
G1 X43.055 Y155.38 E18.04826
G1 X42.543 Y154.594 E18.09506
G1 X42.1 Y153.767 E18.14186
G1 X41.729 Y152.906 E18.18863
G1 X41.433 Y152.016 E18.23543
G1 X41.214 Y151.104 E18.28222
G1 X41.073 Y150.177 E18.329
G1 X41.013 Y149.288 E18.37346
G1 X41.004 Y148.955 E18.39007
G1 X41 Y148.658 E18.40489
G1 X41.001 Y71.525 E22.25307
G1 X41.01 Y70.86 E22.28625
G1 X41.063 Y69.924 E22.33303
G1 X41.195 Y68.995 E22.37984
G1 X41.406 Y68.081 E22.42664
G1 X41.694 Y67.189 E22.4734
G1 X42.057 Y66.324 E22.5202
G1 X42.492 Y65.493 E22.567
G1 X42.996 Y64.703 E22.61375
G1 X43.566 Y63.958 E22.66055
G1 X44.198 Y63.264 E22.70738
G1 X44.886 Y62.627 E22.75416
G1 X45.626 Y62.051 E22.80094
G0 F6000 X46.01 Y62.27
G1 F1200 X46.791 Y61.782 E22.84689
G1 X47.611 Y61.364 E22.89281
G1 X48.465 Y61.019 E22.93876
G1 X49.345 Y60.749 E22.98468
G1 X50.245 Y60.557 E23.03059
G1 X51.159 Y60.443 E23.07654
G1 X51.712 Y60.413 E23.10417
G1 X52.033 Y60.404 E23.1202
G1 X52.33 Y60.4 E23.13501
G1 X167.293 Y60.4 E28.87054
G1 X168.143 Y60.411 E28.91295
G1 X169.062 Y60.464 E28.95888
G1 X169.973 Y60.597 E29.00481
G1 X170.869 Y60.808 E29.05073
G1 X171.743 Y61.096 E29.09664
G1 X172.59 Y61.459 E29.14262
G1 X173.401 Y61.894 E29.18853
G1 X174.171 Y62.398 E29.23444
G1 X174.895 Y62.967 E29.28039
G1 X175.567 Y63.597 E29.32634
G1 X176.182 Y64.282 E29.37227
G1 X176.735 Y65.018 E29.4182
G1 X177.222 Y65.799 E29.46412
G1 X177.639 Y66.62 E29.51006
G1 X177.984 Y67.474 E29.55601
G1 X178.253 Y68.354 E29.60192
G1 X178.445 Y69.255 E29.64788
G1 X178.558 Y70.168 E29.69377
G1 X178.587 Y70.712 E29.72095
G1 X178.596 Y71.032 E29.73692
G1 X178.6 Y71.33 E29.75179
G1 X178.599 Y148.395 E33.59658
G1 X178.59 Y149.122 E33.63285
G1 X178.539 Y150.041 E33.67877
G1 X178.408 Y150.953 E33.72474
G1 X178.198 Y151.849 E33.77065
G1 X177.912 Y152.724 E33.81658
G1 X177.551 Y153.571 E33.86252
G1 X177.117 Y154.383 E33.90845
G1 X176.615 Y155.155 E33.95439
G1 X176.047 Y155.88 E34.00034
G1 X175.419 Y156.553 E34.04626
G1 X174.735 Y157.169 E34.09219
G1 X174 Y157.723 E34.13811
G1 X173.22 Y158.212 E34.18404
G1 X172.4 Y158.631 E34.22998
G1 X171.547 Y158.977 E34.2759
G1 X170.667 Y159.248 E34.32184
G1 X169.767 Y159.441 E34.36776
G1 X168.853 Y159.556 E34.41372
G1 X168.288 Y159.587 E34.44195
G1 X167.967 Y159.596 E34.45797
G1 X167.67 Y159.6 E34.47279
G1 X52.57 Y159.599 E40.21515
G1 X51.872 Y159.59 E40.24998
G1 X50.953 Y159.538 E40.2959
G1 X50.042 Y159.407 E40.34182
G1 X49.146 Y159.197 E40.38773
G1 X48.271 Y158.91 E40.43368
G1 X47.424 Y158.548 E40.47963
G1 X46.612 Y158.114 E40.52556
G1 X45.841 Y157.612 E40.57146
G1 X45.116 Y157.044 E40.61741
G1 X44.443 Y156.415 E40.66337
G1 X43.828 Y155.731 E40.70926
G1 X43.274 Y154.996 E40.75518
G1 X42.786 Y154.215 E40.80113
G1 X42.367 Y153.395 E40.84707
G1 X42.021 Y152.542 E40.89299
G1 X41.751 Y151.662 E40.93891
G1 X41.558 Y150.761 E40.98489
G1 X41.444 Y149.848 E41.03079
G1 X41.413 Y149.277 E41.05932
G1 X41.404 Y148.944 E41.07594
G1 X41.4 Y148.658 E41.09021
G1 X41.401 Y71.531 E44.93809
G1 X41.41 Y70.866 E44.97127
G1 X41.462 Y69.946 E45.01724
G1 X41.594 Y69.035 E45.06317
G1 X41.805 Y68.139 E45.10909
G1 X42.092 Y67.264 E45.15503
G1 X42.455 Y66.418 E45.20096
G1 X42.889 Y65.606 E45.2469
G1 X43.392 Y64.835 E45.29282
G1 X43.961 Y64.111 E45.33876
G1 X44.589 Y63.439 E45.38465
G1 X45.274 Y62.823 E45.43061
G1 X46.01 Y62.27 E45.47654
G0 F6000 X46.394 Y62.494
G1 F1200 X47.169 Y62.031 E45.52158
G1 X47.982 Y61.638 E45.56663
G1 X48.827 Y61.318 E45.61171
G1 X49.696 Y61.075 E45.65673
G1 X50.584 Y60.909 E45.7018
G1 X51.723 Y60.813 E45.75882
G1 X52.044 Y60.804 E45.77484
G1 X52.33 Y60.8 E45.78911
G1 X167.293 Y60.8 E51.52464
G1 X168.137 Y60.811 E51.56675
G1 X169.039 Y60.864 E51.61183
G1 X169.932 Y60.996 E51.65687
G1 X170.81 Y61.207 E51.70192
G1 X171.666 Y61.495 E51.74698
G1 X172.493 Y61.857 E51.79202
G1 X173.285 Y62.292 E51.8371
G1 X174.036 Y62.794 E51.88216
G1 X174.739 Y63.361 E51.92722
G1 X175.389 Y63.988 E51.97228
G1 X175.981 Y64.67 E52.01734
G1 X176.511 Y65.401 E52.06238
G1 X176.973 Y66.177 E52.10744
G1 X177.366 Y66.99 E52.15249
G1 X177.684 Y67.835 E52.19753
G1 X177.927 Y68.705 E52.2426
G1 X178.092 Y69.593 E52.28766
G1 X178.187 Y70.723 E52.34423
G1 X178.196 Y71.043 E52.36021
G1 X178.2 Y71.33 E52.37453
G1 X178.199 Y148.39 E56.21906
G1 X178.19 Y149.117 E56.25534
G1 X178.139 Y150.019 E56.30041
G1 X178.008 Y150.913 E56.34549
G1 X177.799 Y151.791 E56.39052
G1 X177.513 Y152.648 E56.43559
G1 X177.152 Y153.476 E56.48065
G1 X176.72 Y154.268 E56.52566
G1 X176.219 Y155.02 E56.57074
G1 X175.653 Y155.724 E56.61581
G1 X175.028 Y156.375 E56.66083
G1 X174.347 Y156.969 E56.70592
G1 X173.616 Y157.5 E56.75099
G1 X172.842 Y157.964 E56.79602
G1 X172.029 Y158.358 E56.84109
G1 X171.185 Y158.678 E56.88612
G1 X170.315 Y158.923 E56.93121
G1 X169.428 Y159.089 E56.97624
G1 X168.277 Y159.187 E57.03387
G1 X167.956 Y159.196 E57.04989
G1 X167.67 Y159.2 E57.06416
G1 X52.575 Y159.199 E62.80627
G1 X51.877 Y159.19 E62.8411
G1 X50.976 Y159.139 E62.88612
G1 X50.082 Y159.007 E62.93121
G1 X49.204 Y158.798 E62.97623
G1 X48.347 Y158.511 E63.02132
G1 X47.52 Y158.15 E63.06634
G1 X46.727 Y157.717 E63.11142
G1 X45.976 Y157.216 E63.15646
G1 X45.272 Y156.65 E63.20152
G1 X44.621 Y156.024 E63.24658
G1 X44.028 Y155.343 E63.29163
G1 X43.498 Y154.612 E63.33668
G1 X43.034 Y153.837 E63.38174
G1 X42.64 Y153.024 E63.42682
G1 X42.32 Y152.18 E63.47185
G1 X42.076 Y151.31 E63.51693
G1 X41.91 Y150.422 E63.562
G1 X41.813 Y149.267 E63.61983
G1 X41.804 Y148.934 E63.63644
G1 X41.8 Y148.658 E63.65022
G1 X41.801 Y71.536 E67.49785
G1 X41.81 Y70.871 E67.53103
G1 X41.862 Y69.969 E67.5761
G1 X41.994 Y69.076 E67.62114
G1 X42.204 Y68.198 E67.66618
G1 X42.491 Y67.341 E67.71127
G1 X42.853 Y66.514 E67.75631
G1 X43.286 Y65.722 E67.80134
G1 X43.788 Y64.971 E67.84641
G1 X44.355 Y64.267 E67.89151
G1 X44.981 Y63.617 E67.93653
G1 X45.662 Y63.024 E67.98158
G1 X46.394 Y62.494 E68.02667
G1 F2400 E65.02667
;MESH:test.stl
G0 F6000 X52.81 Y70.335
G0 X52.81 Y71.81
G0 X52.782 Y148.218
G0 X167.4 Y148.4
;TYPE:WALL-INNER
G1 F2400 E68.02667
G1 F1200 X52.6 Y148.4 E73.75406
G1 X52.6 Y71.6 E77.58563
G1 X167.4 Y71.6 E83.31302
G1 X167.4 Y148.4 E87.14459
G0 F6000 X167.8 Y148.8
;TYPE:WALL-OUTER
G1 F1200 X52.2 Y148.8 E92.9119
G1 X52.2 Y71.2 E96.78338
G1 X167.8 Y71.2 E102.55069
G1 X167.8 Y148.8 E106.42217
G0 F6000 X167.53 Y148.53
G0 X167.29 Y148.01
G0 X167.01 Y148.01
;TYPE:SKIN
G1 F1200 X52.99 Y148.01 E112.11065
G1 X52.99 Y71.99 E115.9033
G1 X167.01 Y71.99 E121.59178
G1 X167.01 Y148.01 E125.38443
G0 F6000 X167.29 Y148.01
G0 X167.29 Y72.38
G0 X166.849 Y72.38
G1 F1200 X166.619 Y72.149 E125.4007
G0 F6000 X166.053 Y72.149
G1 F1200 X166.849 Y72.945 E125.45686
G0 F6000 X166.849 Y73.511
G1 F1200 X165.487 Y72.149 E125.55296
G0 F6000 X164.922 Y72.149
G1 F1200 X166.849 Y74.077 E125.68895
G0 F6000 X166.849 Y74.642
G1 F1200 X164.356 Y72.149 E125.86485
G0 F6000 X163.79 Y72.149
G1 F1200 X166.849 Y75.208 E126.08067
G0 F6000 X166.849 Y75.774
G1 F1200 X163.224 Y72.149 E126.33644
G0 F6000 X162.659 Y72.149
G1 F1200 X166.849 Y76.339 E126.63206
G0 F6000 X166.849 Y76.905
G1 F1200 X162.093 Y72.149 E126.96763
G0 F6000 X161.527 Y72.149
G1 F1200 X166.849 Y77.471 E127.34312
G0 F6000 X166.849 Y78.037
G1 F1200 X160.962 Y72.149 E127.75852
G0 F6000 X160.396 Y72.149
G1 F1200 X166.849 Y78.602 E128.21381
G0 F6000 X166.849 Y79.168
G1 F1200 X159.83 Y72.149 E128.70904
G0 F6000 X159.265 Y72.149
G1 F1200 X166.849 Y79.734 E129.24417
G0 F6000 X166.849 Y80.299
G1 F1200 X158.699 Y72.149 E129.81919
G0 F6000 X158.133 Y72.149
G1 F1200 X166.849 Y80.865 E130.43415
G0 F6000 X166.849 Y81.431
G1 F1200 X157.568 Y72.149 E131.08901
G0 F6000 X157.002 Y72.149
G1 F1200 X166.849 Y81.996 E131.78377
G0 F6000 X166.849 Y82.562
G1 F1200 X156.436 Y72.149 E132.51847
G0 F6000 X155.871 Y72.149
G1 F1200 X166.849 Y83.128 E133.29306
G0 F6000 X166.849 Y83.693
G1 F1200 X155.305 Y72.149 E134.10755
G0 F6000 X154.739 Y72.149
G1 F1200 X166.849 Y84.259 E134.96198
G0 F6000 X166.849 Y84.825
G1 F1200 X154.174 Y72.149 E135.8563
G0 F6000 X153.608 Y72.149
G1 F1200 X166.849 Y85.39 E136.79053
G0 F6000 X166.849 Y85.956
G1 F1200 X153.042 Y72.149 E137.76468
G0 F6000 X152.476 Y72.149
G1 F1200 X166.849 Y86.522 E138.77878
G0 F6000 X166.849 Y87.087
G1 F1200 X151.911 Y72.149 E139.83273
G0 F6000 X151.345 Y72.149
G1 F1200 X166.849 Y87.653 E140.92662
G0 F6000 X166.849 Y88.219
G1 F1200 X150.779 Y72.149 E142.06045
G0 F6000 X150.214 Y72.149
G1 F1200 X166.849 Y88.785 E143.23417
G0 F6000 X166.849 Y89.35
G1 F1200 X149.648 Y72.149 E144.4478
G0 F6000 X149.082 Y72.149
G1 F1200 X166.849 Y89.916 E145.70136
G0 F6000 X166.849 Y90.482
G1 F1200 X148.517 Y72.149 E146.99481
G0 F6000 X147.951 Y72.149
G1 F1200 X166.849 Y91.047 E148.32817
G0 F6000 X166.849 Y91.613
G1 F1200 X147.385 Y72.149 E149.70146
G0 F6000 X146.82 Y72.149
G1 F1200 X166.849 Y92.179 E151.11465
G0 F6000 X166.849 Y92.744
G1 F1200 X146.254 Y72.149 E152.56774
G0 F6000 X145.688 Y72.149
G1 F1200 X166.849 Y93.31 E154.06076
G0 F6000 X166.849 Y93.876
G1 F1200 X145.123 Y72.149 E155.59368
G0 F6000 X144.557 Y72.149
G1 F1200 X166.849 Y94.441 E157.1665
G0 F6000 X166.849 Y95.007
G1 F1200 X143.991 Y72.149 E158.77926
G0 F6000 X143.426 Y72.149
G1 F1200 X166.849 Y95.573 E160.43191
G0 F6000 X166.849 Y96.138
G1 F1200 X142.86 Y72.149 E162.12447
G0 F6000 X142.294 Y72.149
G1 F1200 X166.849 Y96.704 E163.85695
G0 F6000 X166.849 Y97.27
G1 F1200 X141.728 Y72.149 E165.62938
G0 F6000 X141.163 Y72.149
G1 F1200 X166.849 Y97.836 E167.4417
G0 F6000 X166.849 Y98.401
G1 F1200 X140.597 Y72.149 E169.29392
G0 F6000 X140.031 Y72.149
G1 F1200 X166.849 Y98.967 E171.18607
G0 F6000 X166.849 Y99.533
G1 F1200 X139.466 Y72.149 E173.11813
G0 F6000 X138.9 Y72.149
G1 F1200 X166.849 Y100.098 E175.09008
G0 F6000 X166.849 Y100.664
G1 F1200 X138.334 Y72.149 E177.10197
G0 F6000 X137.769 Y72.149
G1 F1200 X166.849 Y101.23 E179.15375
G0 F6000 X166.849 Y101.795
G1 F1200 X137.203 Y72.149 E181.24544
G0 F6000 X136.637 Y72.149
G1 F1200 X166.849 Y102.361 E183.37706
G0 F6000 X166.849 Y102.927
G1 F1200 X136.072 Y72.149 E185.54858
G0 F6000 X135.506 Y72.149
G1 F1200 X166.849 Y103.492 E187.75999
G0 F6000 X166.849 Y104.058
G1 F1200 X134.94 Y72.149 E190.01135
G0 F6000 X134.375 Y72.149
G1 F1200 X166.849 Y104.624 E192.3026
G0 F6000 X166.849 Y105.189
G1 F1200 X133.809 Y72.149 E194.63375
G0 F6000 X133.243 Y72.149
G1 F1200 X166.849 Y105.755 E197.00483
G0 F6000 X166.849 Y106.321
G1 F1200 X132.677 Y72.149 E199.41585
G0 F6000 X132.112 Y72.149
G1 F1200 X166.849 Y106.886 E201.86674
G0 F6000 X166.849 Y107.452
G1 F1200 X131.546 Y72.149 E204.35755
G0 F6000 X130.98 Y72.149
G1 F1200 X166.849 Y108.018 E206.8883
G0 F6000 X166.849 Y108.584
G1 F1200 X130.415 Y72.149 E209.45896
G0 F6000 X129.849 Y72.149
G1 F1200 X166.849 Y109.149 E212.0695
G0 F6000 X166.849 Y109.715
G1 F1200 X129.283 Y72.149 E214.71999
G0 F6000 X128.718 Y72.149
G1 F1200 X166.849 Y110.281 E217.41037
G0 F6000 X166.849 Y110.846
G1 F1200 X128.152 Y72.149 E220.14065
G0 F6000 X127.586 Y72.149
G1 F1200 X166.849 Y111.412 E222.91087
G0 F6000 X166.849 Y111.978
G1 F1200 X127.021 Y72.149 E225.72099
G0 F6000 X126.455 Y72.149
G1 F1200 X166.849 Y112.543 E228.571
G0 F6000 X166.849 Y113.109
G1 F1200 X125.889 Y72.149 E231.46095
G0 F6000 X125.324 Y72.149
G1 F1200 X166.849 Y113.675 E234.3908
G0 F6000 X166.849 Y114.24
G1 F1200 X124.758 Y72.149 E237.36055
G0 F6000 X124.192 Y72.149
G1 F1200 X166.849 Y114.806 E240.37023
G0 F6000 X166.849 Y115.372
G1 F1200 X123.627 Y72.149 E243.41981
G0 F6000 X123.061 Y72.149
G1 F1200 X166.849 Y115.937 E246.50929
G0 F6000 X166.849 Y116.503
G1 F1200 X122.495 Y72.149 E249.6387
G0 F6000 X121.929 Y72.149
G1 F1200 X166.849 Y117.069 E252.80805
G0 F6000 X166.849 Y117.634
G1 F1200 X121.364 Y72.149 E256.01726
G0 F6000 X120.798 Y72.149
G1 F1200 X166.849 Y118.2 E259.26641
G0 F6000 X166.849 Y118.766
G1 F1200 X120.232 Y72.149 E262.55549
G0 F6000 X119.667 Y72.149
G1 F1200 X166.849 Y119.332 E265.88447
G0 F6000 X166.849 Y119.897
G1 F1200 X119.101 Y72.149 E269.25335
G0 F6000 X118.535 Y72.149
G1 F1200 X166.849 Y120.463 E272.66217
G0 F6000 X166.849 Y121.029
G1 F1200 X117.97 Y72.149 E276.11088
G0 F6000 X117.404 Y72.149
G1 F1200 X166.849 Y121.594 E279.59949
G0 F6000 X166.849 Y122.16
G1 F1200 X116.838 Y72.149 E283.12804
G0 F6000 X116.273 Y72.149
G1 F1200 X166.849 Y122.726 E286.69648
G0 F6000 X166.849 Y123.291
G1 F1200 X115.707 Y72.149 E290.30483
G0 F6000 X115.141 Y72.149
G1 F1200 X166.849 Y123.857 E293.9531
G0 F6000 X166.849 Y124.423
G1 F1200 X114.576 Y72.149 E297.64128
G0 F6000 X114.01 Y72.149
G1 F1200 X166.849 Y124.988 E301.36936
G0 F6000 X166.849 Y125.554
G1 F1200 X113.444 Y72.149 E305.13737
G0 F6000 X112.878 Y72.149
G1 F1200 X166.849 Y126.12 E308.94532
G0 F6000 X166.849 Y126.685
G1 F1200 X112.313 Y72.149 E312.79313
G0 F6000 X111.747 Y72.149
G1 F1200 X166.849 Y127.251 E316.68087
G0 F6000 X166.849 Y127.817
G1 F1200 X111.181 Y72.149 E320.60855
G0 F6000 X110.616 Y72.149
G1 F1200 X166.849 Y128.383 E324.57612
G0 F6000 X166.849 Y128.948
G1 F1200 X110.05 Y72.149 E328.5836
G0 F6000 X109.484 Y72.149
